X: 30666
T: Open The Door For Three
R: slip jig
M: 9/8
K: Gmajor
D|G2c BGB AFA|G2c BGB c2d|ege dcB AFD|E2c c2A G2D|
G2c BGB AFA|G2c BGB c2d|ege dcB AFD|E2c BcA G2d|
gdB gdB AFD|~g3 def g2d|ege dcB AFD|E2c c2A G2d|
gdB gdB AFD|g2g def g2d|ege dcB AFD|E2c BcA G2||

